小程序/down.svg

<svg width="11" height="6">
  <path fill="#000" fill-rule="evenodd" d="M10.5686637.28808594c.143881.14388093.2158204.30989489.2158204.49804687s-.0719394.35416595-.2158204.49804688L6.31866375 5.5341797c-.07747435.0774743-.16324823.1328123-.25732422.1660156C5.96726354 5.7333986 5.88702345 5.75 5.82061687 5.75c-.06640658 0-.14664667-.0166014-.24072266-.0498047-.09407599-.0332033-.17984987-.0885413-.25732421-.1660156l-4.25-4.25000001C.92868907 1.14029876.85674968.97428479.85674968.78613281c0-.18815198.07193939-.35416594.21582032-.49804687.14388092-.13281317.30989489-.19921875.49804687-.19921875s.35416595.06640558.49804688.19921875L5.82061687 4.0566406 9.57257.28808594c.1438809-.13281317.3098949-.19921875.4980469-.19921875.188152 0 .3541659.06640558.4980468.19921875z"/>
</svg>

<?xml version="1.0" encoding="UTF-8"?>
<svg width="11px" height="6px" viewBox="0 0 11 6" version="1.1" xmlns="http://www.w3.org/2000/svg" xmlns:xlink="http://www.w3.org/1999/xlink">
    <!-- Generator: Sketch 50 (54983) - http://www.bohemiancoding.com/sketch -->
    <title>down</title>
    <desc>Created with Sketch.</desc>
    <defs></defs>
    <g id="Page-1" stroke="none" stroke-width="1" fill="none" fill-rule="evenodd">
        <g id="down" fill="#000000">
            <path d="M10.5686637,0.28808594 C10.7125447,0.43196687 10.7844841,0.59798083 10.7844841,0.78613281 C10.7844841,0.97428479 10.7125447,1.14029876 10.5686637,1.28417969 L6.31866375,5.5341797 C6.2411894,5.611654 6.15541552,5.666992 6.06133953,5.7001953 C5.96726354,5.7333986 5.88702345,5.75 5.82061687,5.75 C5.75421029,5.75 5.6739702,5.7333986 5.57989421,5.7001953 C5.48581822,5.666992 5.40004434,5.611654 5.32257,5.5341797 L1.07257,1.28417969 C0.92868907,1.14029876 0.85674968,0.97428479 0.85674968,0.78613281 C0.85674968,0.59798083 0.92868907,0.43196687 1.07257,0.28808594 C1.21645092,0.15527277 1.38246489,0.08886719 1.57061687,0.08886719 C1.75876885,0.08886719 1.92478282,0.15527277 2.06866375,0.28808594 L5.82061687,4.0566406 L9.57257,0.28808594 C9.7164509,0.15527277 9.8824649,0.08886719 10.0706169,0.08886719 C10.2587689,0.08886719 10.4247828,0.15527277 10.5686637,0.28808594 Z" id="Shape"></path>
        </g>
    </g>
</svg>
